packages/calcite-ui-icons/icons/editing-trim-to-length-32.svg

<?xml version="1.0" encoding="UTF-8"?><svg id="icons" xmlns="http://www.w3.org/2000/svg" viewBox="0 0 32 32"><defs><style>.cls-1{fill:none;}</style></defs><path d="M27.00098,2v3h2.99902v-3h-2.99902ZM29,4h-1v-1h1v1ZM19,12h1v1h-1v-1ZM17,14h1v1h-1v-1ZM21,10h1v1h-1v-1ZM23,8h1v1h-1v-1ZM25,6h1v1h-1v-1ZM13,18.46924l-8.53033,8.53076h-2.46967v3h2.99902v-2.46875l8.53082-8.53125h2.46918v-3h-2.99902v2.46924ZM14,17h1v1h-1v-1ZM4,29h-1v-1h1v1Z"/><rect class="cls-1" width="32" height="32"/></svg>

<svg xmlns="http://www.w3.org/2000/svg" viewBox="0 0 32 32"><path d="M27.001 2v3H30V2h-2.999zM29 4h-1V3h1v1zm-10 8h1v1h-1v-1zm-2 2h1v1h-1v-1zm4-4h1v1h-1v-1zm2-2h1v1h-1V8zm2-2h1v1h-1V6zM13 18.47L4.47 27H2v3h2.999v-2.469L13.529 19H16v-3h-3v2.47zM14 17h1v1h-1v-1zM4 29H3v-1h1v1z"/><path fill="none" d="M0 0h32v32H0z"/></svg>
